X:17
L:1/8
M:4/4
K:F
 G | ADDC D2 DG | ADDC D2 D2 | C3 E G4 | ABAG FEDG |
 ADDC D2 DG | ADDC D2 D2 | C3 E G4 | AGFE D3 A ||
 Adde fe d2 | Adde f4 | Gccd ed c2 | Gccd e4 |
 Adde fe d2 | Adde f4 | A3 G F2 D2 | EFGA D4 |]

